X: 41259
T: Tsizik Polkka
R: polka
M: 2/4
K: Amixolydian
|:e>a gf|ed cA|B>d df|e/f/e/d/ e2|
e>a ae|dc BA|G>B Bd|c/d/c/B/ A2:|
|:e2 ed/e/|fe cA|B>d df|e/f/e/d/ e2|
e2 ed/e/|fd cA|G>B Bd|c/d/c/B/ A2:|

